X:1
T:Fest
T:Fest
T:Oscar Borg
C:Oscar Borg
%%score [ 1 2 3 4 ]
L:1/8
Q:1/4=94
M:4/4
K:C
V:1 treble-8 nm="T1"
V:2 treble-8 nm="T2"
V:3 bass nm="B1"
V:4 bass nm="B2"
V:1
!f!"^Marcia" !>!C2- (3C E G c4 | !>!c2 d3/2 d/ e4 | !>!g2 d3/2 d/ e2 c3/2 c/ | %3
w: 1.Kvin- * de og mand!|Kvin- de og mand!|At- ter saa kom- mer den|
w: 2.Her- * li- ge dag!|Her- li- ge dag!|mil- de, be- ta- gen- de|
 !>!e2 B3/2 B/ c2 A3/2 A/ |!<(! d6 c2!<)! | (!>!B3 B) e2 e3/2 e/ |!<(! d6 d2!<)! | !>!G6 z!p! G | %8
w: mæg- ti- ge, min- den- de|ma- i-|dag, _ min- den- de|ma- i-|dag med|
w: dron- ning blandt da- ge- ne|sti- ger|du, blandt da- ge- ne|sti- ger|du saa|
 G2 A3/2 B/ c2 G3/2 G/ | B2 c3/2 d/ e2!<(! c3/2 c/!<)! |!f! f4 c2 c2 | e6 z2 | %12
w: fest just i vaar- morg- nens|rin- den- de sol o- ver|land, o- ver|land.|
w: straa- len- de frem me- lem|sla- ge- ne, klædt i vort|flag, i vort|flag.|
!mf! d2 d3/2 d/ c2 B3/2 B/ | c2 d3/2 d/ e2 c3/2 c/ |!<(! e4 g2 f2!<)! | !>!d6 z2 | z8 | z8 | %18
w: Fest- stem- te fyl- ker sig|men- ne- ske- ska- rer- ne|un- der vort|flag,|||
w: Alt hvad der bor i e'ns|sand, det faar ord i e'ns|lov til den|dag,|||
!f! !>!G2- (3G B d g2 f3/2 f/ | (f2 e2) e2 e e | f2 c3/2 d/ e2 e3/2 e/ | d2 A3/2 B/ c2 c3/2 c/ | %22
w: ju- * be- len sti- ger, _|sti- * ger. _ Saa|ly- der fan- fa- rer- ne,|ly- der fan- fa- rer- ne:|
w: den, _ der la glo- ri- ens|krans, _ glo- ri- ens|krans om hi- sto- ri- ens,|krans om hi- sto- ri- ens|
 !>!c4 !>!B2 !>!B2 | !>!c6 z2 |] %24
w: frem- ad i-|dag!|
w: skjön- ne- ste|slag.|
V:2
!f! !>!C2- (3C E G c4 | !>!c2 B3/2 B/ c4 | !>!B2 B3/2 B/ c2 c3/2 c/ | !>!B2 ^G3/2 G/ A2 A3/2 A/ | %4
w: 1.Kvin- * de og mand!|Kvin- de og mand!|At- ter saa kom- mer den|mæg- ti- ge, min- den- de|
w: 2.Her- * li- ge dag!|Her- li- ge dag!|mil- de, be- ta- gen- de|dron- ning blandt da- ge- ne|
!<(! A6 A2!<)! | (!>!B3 B) c2 c3/2 c/ |!<(! B6 A2!<)! | !>!G6 z!p! G | G2 A3/2 B/ c2 G3/2 G/ | %9
w: ma- i-|dag, _ min- den- de|ma- i-|dag med|fest just i vaar- morg- nens|
w: sti- ger|du, blandt da- ge- ne|sti- ger|du saa|straa- len- de frem me- lem|
 G2 G3/2 B/ c2!<(! c3/2 c/!<)! |!f! c4 c2 c2 | c6 z2 |!mf! A2 A3/2 A/ G2 G3/2 G/ | %13
w: rin- den- de sol o- ver|land, o- ver|land.|Fest- stem- te fyl- ker sig|
w: sla- ge- ne, klædt i vort|flag, i vort|flag.|Alt hvad der bor i e'ns|
 G2 B3/2 B/ c2 c3/2 c/ |!<(! (c2 _B2) A2 d2!<)! | !>!=B6 z2 | z8 |!f! !>!D2- (3D F A d2 c3/2 c/ | %18
w: men- ne- ske- ska- rer- ne|un- * der vort|flag,||ju- * be- len sti- ger, _|
w: sand, det faar ord i e'ns|lov _ til den|dag,||den, _ der la glo- ri- ens|
 c2 B2 B2 d3/2 d/ | (d2 c2) c3 c | c2 c3/2 B/ B2 B3/2 B/ | A2 A3/2 A/ A2 A3/2 A/ | %22
w: ju- * be- len _|sti- * ger. Saa|ly- der fan- fa- rer- ne,|ly- der fan- fa- rer- ne:|
w: krans, _ den, der la|glo- * ri- ens|krans om hi- sto- ri- ens,|krans om hi- sto- ri- ens|
 !>!A4 !>!G2 !>!G2 | !>!G6 z2 |] %24
w: frem- ad i-|dag!|
w: skjön- ne- ste|slag.|
V:3
!f! !>!C,2- (3C, E, G, C4 | !>!A,2 G,3/2 G,/ G,4 | !>!G,2 G,3/2 G,/ G,2 G,3/2 G,/ | %3
w: 1.Kvin- * de og mand!|Kvin- de og mand!|At- ter saa kom- mer den|
w: 2.Her- * li- ge dag!|Her- li- ge dag!|mil- de, be- ta- gen- de|
 !>!^G,2 E,3/2 E,/ E,2 E,3/2 E,/ |!<(! ^F,6 F,2!<)! | (!>!G,3 G,) G,2 G,3/2 G,/ | %6
w: mæg- ti- ge, min- den- de|ma- i-|dag, _ min- den- de|
w: dron- ning blandt da- ge- ne|sti- ger|du, blandt da- ge- ne|
!<(! G,6 ^F,2!<)! | !>!G,6 z!p! G, | G,2 G,3/2 G,/ G,2 G,3/2 G,/ | %9
w: ma- i-|dag med|fest just i vaar- morg- nens|
w: sti- ger|du saa|straa- len- de frem me- lem|
 G,2 G,3/2 G,/ G,2!<(! C3/2 C/!<)! |!f! A,4 C2 C2 | G,6 z2 |!mf! F,2 F,3/2 F,/ F,2 F,3/2 F,/ | %13
w: rin- den- de sol o- ver|land, o- ver|land.|Fest- stem- te fyl- ker sig|
w: sla- ge- ne, klædt i vort|flag, i vort|flag.|Alt hvad der bor i e'ns|
 E,2 G,3/2 G,/ G,2 A,3/2 A,/ |!<(! G,4 F,2 A,2!<)! | !>!G,6 z2 |!f! !>!C,2- (3C, E, G, C2 B,2 | %17
w: men- ne- ske- ska- rer- ne|un- der vort|flag,|ju- * be- len sti- ger,|
w: sand, det faar ord i e'ns|lov til den|dag,|den, _ der la glo- riens|
 B,2 A,2 A,2 _A,3/2 A,/ | G,2 F,2 D,2 G,2 | (G,2 C2) C3 C | C2 A,3/2 A,/ ^G,2 G,3/2 G,/ | %21
w: ju- * be- len, _|ju- * be- len|sti- * ger. Saa|ly- der fan- fa- rer- ne,|
w: krans, _ den, der la|glo- * ri- ens,|glo- * ri- ens|krans om hi- sto- ri- ens,|
 A,2 F,3/2 F,/ E,2 E,3/2 E,/ | !>!F,4 !>!D,2 !>!F,2 | !>!E,6 z2 |] %24
w: ly- der fan- fa- rer- ne:|frem- ad i-|dag!|
w: krans om hi- sto- ri- ens|skjön- ne- ste|slag.|
V:4
!f! !>!C,2- (3C, E, G, C4 | !>!A,2 G,3/2 G,/ C,4 | !>!G,,2 G,3/2 G,/ C,2 E,3/2 E,/ | %3
w: 1.Kvin- * de og mand!|Kvin- de og mand!|At- ter saa kom- mer den|
w: 2.Her- * li- ge dag!|Her- li- ge dag!|mil- de, be- ta- gen- de|
 !>!E,,2 E,3/2 E,/ A,,2 C,3/2 C,/ |!<(! D,6 D,2!<)! | (!>!G,3 G,) C,2 C,3/2 C,/ |!<(! D,6 D,2!<)! | %7
w: mæg- ti- ge, min- den- de|ma- i-|dag, _ min- den- de|ma- i-|
w: dron- ning blandt da- ge- ne|sti- ger|du, blandt da- ge- ne|sti- ger|
 !>!G,6 z!p! G, | G,2 F,3/2 F,/ E,2 G,3/2 G,/ | F,2 E,3/2 D,/ C,2!<(! C3/2 C/!<)! |!f! F,4 C2 C2 | %11
w: dag med|fest just i vaar- morg- nens|rin- den- de sol o- ver|land, o- ver|
w: du saa|straa- len- de frem me- lem|sla- ge- ne, klædt i vort|flag, i vort|
 C,6 z2 |!mf! D,2 D,3/2 D,/ G,,2 G,,3/2 G,,/ | C,2 G,,3/2 G,,/ C,2 F,3/2 F,/ | %14
w: land.|Fest- stem- te fyl- ker sig|men- ne- ske- ska- rer- ne|
w: flag.|Alt hvad der bor i e'ns|sand, det faar ord i e'ns|
!<(! (C,2 ^C,2) D,2 F,2!<)! | !>!G,6 z2 | z8 | z8 | z8 |!f! !>!C,2- (3C, E, G, C2 B, _B, | %20
w: un- * der vort|flag,||||ju- * be- len sti- ger. Saa|
w: lov _ til den|dag,||||den, _ der la glo- ri- ens|
 A,2 F,3/2 F,/ E,2 E,3/2 E,/ | F,2 D,3/2 D,/ A,,2 A,,3/2 A,,/ | !>!F,,4 !>!G,,2 !>!G,,2 | %23
w: ly- der fan- fa- rer- ne,|ly- der fan- fa- rer- ne:|frem- ad i-|
w: krans om hi- sto- ri- ens,|krans om hi- sto- ri- ens|skjön- ne- ste|
 !>!C,6 z2 |] %24
w: dag!|
w: slag.|

